img/tabs-iconset-tokens.svg

<?xml version="1.0" encoding="UTF-8" standalone="no"?>
<!-- Generator: Adobe Illustrator 21.0.0, SVG Export Plug-In . SVG Version: 6.00 Build 0)  -->

<svg
   xmlns:dc="http://purl.org/dc/elements/1.1/"
   xmlns:cc="http://creativecommons.org/ns#"
   xmlns:rdf="http://www.w3.org/1999/02/22-rdf-syntax-ns#"
   xmlns:svg="http://www.w3.org/2000/svg"
   xmlns="http://www.w3.org/2000/svg"
   xmlns:sodipodi="http://sodipodi.sourceforge.net/DTD/sodipodi-0.dtd"
   xmlns:inkscape="http://www.inkscape.org/namespaces/inkscape"
   version="1.1"
   id="Слой_1"
   x="0px"
   y="0px"
   viewBox="0 0 23.999998 24"
   style="image-rendering:optimizeQuality;shape-rendering:geometricPrecision;text-rendering:geometricPrecision"
   xml:space="preserve"
   sodipodi:docname="tabs-iconset-tokens.svg"
   inkscape:version="0.92.2pre0 (973e216, 2017-07-25)"
   width="23.999998"
   height="24"><metadata
     id="metadata23"><rdf:RDF><cc:Work
         rdf:about=""><dc:format>image/svg+xml</dc:format><dc:type
           rdf:resource="http://purl.org/dc/dcmitype/StillImage" /></cc:Work></rdf:RDF></metadata><defs
     id="defs21" /><sodipodi:namedview
     pagecolor="#ffffff"
     bordercolor="#666666"
     borderopacity="1"
     objecttolerance="10"
     gridtolerance="10"
     guidetolerance="10"
     inkscape:pageopacity="0"
     inkscape:pageshadow="2"
     inkscape:window-width="1366"
     inkscape:window-height="691"
     id="namedview19"
     showgrid="false"
     inkscape:zoom="9.8333333"
     inkscape:cx="31.423728"
     inkscape:cy="11.898306"
     inkscape:window-x="0"
     inkscape:window-y="0"
     inkscape:window-maximized="1"
     inkscape:current-layer="Слой_1" /><style
     type="text/css"
     id="style2">
	.st0{fill:#00AEEF;}
	.st1{fill:#FFFFFF;}
</style><style
     id="style2-5"
     type="text/css">
	.st0{fill:#21409a;}
	.st1{fill:#FFFFFF;}
</style><path
     style="fill:#2584c6;fill-opacity:1;image-rendering:optimizeQuality;shape-rendering:geometricPrecision;text-rendering:geometricPrecision"
     inkscape:connector-curvature="0"
     class="st0"
     d="M 21.999999,24.000001 H 2 c -1.1,0 -2,-0.9 -2,-2 V 1.9999999 C 0,0.9000001 0.9,0 2,0 h 19.999999 c 1.1,0 2,0.9000001 2,1.9999999 V 22.000001 c 0,1.1 -0.9,2 -2,2 z"
     id="path820" /><path
     style="fill:#ffffff;image-rendering:optimizeQuality;shape-rendering:geometricPrecision;text-rendering:geometricPrecision"
     inkscape:connector-curvature="0"
     class="st1"
     d="M 21.599999,23.000001 H 2.4 c -0.8,0 -1.40000004,-0.600001 -1.40000004,-1.4 V 2.3999999 C 0.99999996,1.6 1.6,1 2.4,1 h 19.299999 c 0.7,0 1.3,0.6 1.3,1.3999999 V 21.7 c 0,0.7 -0.6,1.300001 -1.4,1.300001 z"
     id="path822" /><circle
     style="opacity:1;fill:#ee3f36;fill-opacity:0.94901961;fill-rule:nonzero;stroke:none;stroke-width:5;stroke-linecap:round;stroke-linejoin:miter;stroke-miterlimit:10;stroke-dasharray:none;stroke-opacity:1;paint-order:stroke markers fill"
     id="path844"
     cx="13.627118"
     cy="10.677966"
     r="3.6610172" /><g
     id="g16"
     style="fill:#2584c6;fill-opacity:1"
     transform="translate(0.406779,-0.7118644)"><path
       class="st0"
       d="m 8.2,11.4 c 0.1,3.6 3.3,6 6.8,5.1 -1,1.4 -2.3,2 -3.9,1.8 C 9.3,18.1 8.1,17.2 7.5,15.5 6.9,14.2 7.3,12.3 8.2,11.4 Z"
       id="path10"
       inkscape:connector-curvature="0"
       style="fill:#2584c6;fill-opacity:1" /><path
       class="st0"
       d="M 9.6,8.4 C 9.1,8.8 8.8,9.2 8.3,9.6 c -1.1,0.8 -1.6,1.9 -1.6,3.2 0,0.8 0.1,1.7 0.1,2.6 C 5.8,14 5.6,12.5 6.2,10.9 6.8,9.5 7.9,8.6 9.4,8.3 c 0.1,0 0.1,0 0.2,0.1 z"
       id="path12"
       inkscape:connector-curvature="0"
       style="fill:#2584c6;fill-opacity:1" /><path
       class="st0"
       d="m 13.5,6.9 c -2.6,0 -4.6,2.1 -4.6,4.6 0,2.6 2.1,4.6 4.6,4.6 2.6,0 4.6,-2.1 4.6,-4.6 C 18.1,9 16,6.9 13.5,6.9 Z m 2.1,3.3 H 14 v 4.3 H 12.9 V 10.2 H 11.4 V 9.3 h 4.2 c 0,0 0,0.9 0,0.9 z"
       id="path14"
       inkscape:connector-curvature="0"
       style="fill:#2584c6;fill-opacity:1" /></g></svg>

<?xml version="1.0" encoding="utf-8"?>
<!-- Generator: Adobe Illustrator 21.0.0, SVG Export Plug-In . SVG Version: 6.00 Build 0)  -->
<svg version="1.1"
	 id="Слой_1" image-rendering="optimizeQuality" text-rendering="geometricPrecision" shape-rendering="geometricPrecision"
	 xmlns="http://www.w3.org/2000/svg" xmlns:xlink="http://www.w3.org/1999/xlink" x="0px" y="0px" viewBox="0 0 24 24"
	 style="enable-background:new 0 0 24 24;" xml:space="preserve">
<style type="text/css">
	.st0{fill:#00AEEF;}
	.st1{fill:#FFFFFF;}
</style>
<circle class="st0" cx="12" cy="12" r="12"/>
<circle class="st1" cx="12" cy="12" r="11.1"/>
<ellipse transform="matrix(0.7071 -0.7071 0.7071 0.7071 -4.9694 12.0025)" class="st1" cx="12" cy="12" rx="10.4" ry="10.4"/>
<g>
	<path class="st0" d="M8.2,11.4c0.1,3.6,3.3,6,6.8,5.1c-1,1.4-2.3,2-3.9,1.8c-1.8-0.2-3-1.1-3.6-2.8C6.9,14.2,7.3,12.3,8.2,11.4z"/>
	<path class="st0" d="M9.6,8.4C9.1,8.8,8.8,9.2,8.3,9.6c-1.1,0.8-1.6,1.9-1.6,3.2c0,0.8,0.1,1.7,0.1,2.6c-1-1.4-1.2-2.9-0.6-4.5
		c0.6-1.4,1.7-2.3,3.2-2.6C9.5,8.3,9.5,8.3,9.6,8.4z"/>
	<path class="st0" d="M13.5,6.9c-2.6,0-4.6,2.1-4.6,4.6c0,2.6,2.1,4.6,4.6,4.6c2.6,0,4.6-2.1,4.6-4.6S16,6.9,13.5,6.9z M15.6,10.2
		H14v4.3h-1.1v-4.3h-1.5V9.3h4.2C15.6,9.3,15.6,10.2,15.6,10.2z"/>
</g>
</svg>
